assets/Up arrow/Flat/up_arrow_flat.svg

<svg width="32" height="32" viewBox="0 0 32 32" fill="none" xmlns="http://www.w3.org/2000/svg">
<path d="M2 6C2 3.79086 3.79086 2 6 2H26C28.2091 2 30 3.79086 30 6V26C30 28.2091 28.2091 30 26 30H6C3.79086 30 2 28.2091 2 26V6Z" fill="#00A6ED"/>
<path d="M15.3067 7.66724C15.6938 7.29468 16.3062 7.29468 16.6934 7.66724L22.0062 12.7795C22.6549 13.4036 22.213 14.5 21.3128 14.5L18.25 14.5C18.112 14.5 18 14.612 18 14.75L18 24.5C18 25.0523 17.5523 25.5 17 25.5H15C14.4477 25.5 14 25.0523 14 24.5L14 14.75C14 14.612 13.8881 14.5 13.75 14.5L10.6873 14.5C9.78704 14.5 9.34521 13.4036 9.99388 12.7795L15.3067 7.66724Z" fill="white"/>
</svg>

<svg xmlns="http://www.w3.org/2000/svg" width="32" height="32" fill="none"><path fill="#00A6ED" d="M2 6a4 4 0 0 1 4-4h20a4 4 0 0 1 4 4v20a4 4 0 0 1-4 4H6a4 4 0 0 1-4-4V6Z"/><path fill="#fff" d="M15.307 7.667a1 1 0 0 1 1.386 0l5.313 5.113c.649.624.207 1.72-.693 1.72H18.25a.25.25 0 0 0-.25.25v9.75a1 1 0 0 1-1 1h-2a1 1 0 0 1-1-1v-9.75a.25.25 0 0 0-.25-.25h-3.063c-.9 0-1.342-1.096-.693-1.72l5.313-5.113Z"/></svg>
